X: 1
T: In and Out the Roundabout
C: Peter Elmes
R: march
Z: 2010 John Chambers <jc:trillian.mit.edu>
M: 2/4
L: 1/16
K: G
GA \
| "G"B2d2 dcBc | d2g2 g2fe | dBGA "Em"BdBG | "Am"c2A2 "D7"A2GA | "G"B2d2 "D7"dcBc |
| "G"d2g2 "Em"g2fe | "G"dGAB "D7"cBAc | "G"B2G2 G2 :: Bd | "G"g2d2 BcdB | "C"c2e2 e2dc |
| "G"BGgd "Em"Bded | "Am"c2A2 "D7"A2Bd | "G"gd^cd "G7"edcd | "C"e2g2 g2ag | "D7"fdfa bagf | "G"g2b2 g2 :|
